X:1
T:Title
L:1/8
Q:1/4=140
M:6/8
K:C
V:1 treble nm="Grand Piano"
V:1
 z3 E2 F | G6- | G2 c B2 A | G6- | G3 D2 E | F6- | F2 A G2 F | E6 | z3 E2 F | G6- | G2 c B2 A | %11
 G6- | G3 D2 E | F6- | F2 F E2 D | C6 | z3 c2 B | A6- | A2 c B2 A | G6- | G3 A2 G | F6- | %22
 F2 A G2 F | E6 | z3 c2 B | A6- | A2 c B2 A | G3 G2 G | B3- B2 G | B3 G3 | c6 |] %31

